X:1
T: The Gladiator
C:
R:Reel
Q: 232
K:G
M:4/4
L:1/8
D2|G2 GA BA GB|c2 e2 f3e|d2 Bd cB Ac|BA GB A2 D2|
G2 GA BA GB|c2 e2 g3e|d2 Bd cB AG|FD EF G2 FA|
|:d2 ^cd Bd cB|AF GA B^c de|f2 ef d2 fe|dB ^c^A B=A FA|
d2 ^cd Bd cB|AF GA B^c de|f2 ef df2e|1dB ^c^A B2 FA:|2dB ^c^A B=c B=A|
G2 GA BA GB|c2 e2 f3e|d2 Bd cB Ac|BA GB A2 D2|
G2 GA BA GB|c2 e2 g3e|d2 Bd cB AG|FD EF G2||
